svg/u1f45f.svg

<svg viewBox="0 0 128 128" xmlns="http://www.w3.org/2000/svg">
  <defs/>
  <path d="M25.19,70.04 C24.5,70.04 23.8,70.03 23.07,69.99 C19.19,69.83 16.15,68.52 14.03,66.12 C10.22,61.8 10.45,55.17 10.5,54.25 C10.51,54.22 10.52,54.19 10.53,54.16 C10.76,53.37 11.44,50.95 13.43,49.9 C14.73,49.21 15.9,48.88 17,48.88 C18.43,48.88 19.75,49.44 21.04,50.6 C24.33,53.56 28.02,55.4 30.66,55.4 C32.55,55.4 37.6,55.11 39.66,54.98 L42.78,65.27 C41.2,66.5 35.76,70.04 25.19,70.04 Z" fill="#37474F"/>
  <path d="M16.99,49.99 L16.99,49.99 C18.13,49.99 19.21,50.46 20.28,51.42 C23.82,54.61 27.7,56.51 30.65,56.51 C32.33,56.51 36.45,56.28 38.84,56.14 L41.47,64.84 C39.47,66.2 34.35,68.91 25.19,68.91 C24.51,68.91 23.81,68.9 23.12,68.87 C19.56,68.72 16.79,67.55 14.88,65.39 C11.48,61.54 11.56,55.58 11.61,54.43 C11.81,53.72 12.4,51.69 13.95,50.88 C15.07,50.28 16.07,49.99 16.99,49.99 M16.99,47.76 C15.55,47.76 14.17,48.24 12.89,48.91 C10.24,50.31 9.54,53.58 9.39,54.05 C9.39,54.05 7.98,70.47 23.02,71.1 C23.77,71.13 24.49,71.15 25.19,71.15 C38.63,71.15 44.05,65.65 44.05,65.65 L40.47,53.81 C40.47,53.81 32.99,54.28 30.66,54.28 C28.33,54.28 24.9,52.57 21.78,49.76 C20.15,48.31 18.54,47.76 16.99,47.76 L16.99,47.76 Z" fill="#90A4AE"/>
  <path d="M6.62,86.86 C5.11,91.88 5.26,100.74 5.26,100.74 C5.26,102.15 6.15,104.61 8.21,105.39 C19.03,109.46 31.36,108.39 37.8,111.34 C45.28,114.77 69.52,125.32 89.8,123.09 C113.94,120.44 121.6,109.54 122.91,106.5 C123.84,104.32 124.47,96.06 123.53,95.75 C113.27,92.33 75,107.51 68,102.22 C61.99,97.68 8.13,81.84 6.62,86.86 Z" fill="#E0E0E0"/>
  <path d="M12.43,48.99 C12.43,48.99 6.74,53.42 5.27,62.7 C3.7,72.51 2.31,86.86 9.39,92.48 C14.62,96.63 30.77,94.62 38.25,98.05 C45.73,101.48 68.41,118.57 88.69,116.35 C112.83,113.7 121.34,103.2 122.64,100.15 C123.57,97.97 126.15,94.1 112.52,88.61 C102.48,84.57 94.82,78.58 87.81,73.28 C81.8,68.74 60.09,55.52 60.09,55.52 C60.09,55.52 56.46,46.9 50.43,45.55 C46.47,44.66 37.66,49.33 36.1,53.59 C34.37,58.32 36.52,62.68 36.52,62.68 C27.18,67.56 23.96,68.29 17.62,64.24 C11.28,60.19 12.43,48.99 12.43,48.99 Z" fill="#0277BD"/>
  <path d="M12.43,48.99 C12.43,48.99 6.74,53.42 5.27,62.7 C3.7,72.51 2.31,86.86 9.39,92.48 C14.62,96.63 30.77,94.62 38.25,98.05 C45.73,101.48 68.41,118.57 88.69,116.35 C112.83,113.7 121.34,103.2 122.64,100.15 C123.57,97.97 126.15,94.1 112.52,88.61 C102.48,84.57 94.82,78.58 87.81,73.28 C81.8,68.74 60.09,55.52 60.09,55.52 C60.09,55.52 56.46,46.9 50.43,45.55 C46.47,44.66 37.66,49.33 36.1,53.59 C34.37,58.32 36.52,62.68 36.52,62.68 C27.18,67.56 23.96,68.29 17.62,64.24 C11.28,60.19 12.43,48.99 12.43,48.99 Z" fill="#0277BD"/>
  <path d="M37.29,62.62 C39.69,62.22 41.65,62.17 44.03,62.47 C44.13,60.06 42.97,57.32 41.73,55.3 C41.43,54.81 41.09,54.33 40.9,53.79 C39.9,50.97 45.24,48.07 47.37,47.45 C49.71,46.76 52.26,46.87 54.54,47.74 C53.34,46.72 51.97,45.92 50.45,45.57 C46.77,44.74 42.09,47.27 39.24,49.35 C34.82,52.56 33.98,57.37 36.39,62.31 C36.45,62.44 36.53,62.58 36.65,62.64 C36.78,62.71 36.94,62.69 37.09,62.66 C37.14,62.64 37.21,62.63 37.29,62.62 Z" fill="#BDBDBD"/>
  <path d="M92.05,76.48 C90.97,75.68 89.58,75.37 88.3,75.77 C88.02,75.86 87.74,75.96 87.47,76.07 C85.05,77.07 83.13,78.96 81.3,80.84 C79.47,82.71 77.62,84.66 75.28,85.82 C72.11,87.39 69.42,86.62 66.26,86.46 C63.37,86.32 61.57,87.82 60.92,90.85 C60.47,92.96 61.49,95.81 63.33,96.94 C69.64,100.82 75.82,102.55 82.68,103.48 C91.46,104.67 100.64,102.66 108.12,97.92 C110.24,96.58 112.36,94.82 112.88,92.36 C112.88,92.35 112.89,92.33 112.89,92.32 C113.28,90.42 112.19,88.5 110.41,87.71 C103.31,84.57 97.41,80.48 92.05,76.48 Z" fill="#03A9F4"/>
  <path d="M72.39,88.52 C69.95,88.52 67.53,87.43 65.18,86.09 C61.41,83.94 46.24,73.96 41.66,70.94 C40.6,72.21 38.81,74.06 36.71,74.92 C34.73,75.73 33.09,75.55 31.64,75.4 C30.19,75.25 29.04,75.12 27.48,75.9 C25.39,76.95 23.53,78.41 21.42,79.42 C19.17,80.5 15.02,80.37 12.9,79.57 C7.96,77.71 7.2,75.08 6.95,74.04 C9.38,75.76 12.54,77.63 16.07,77.48 C21.3,77.26 23.2,74.36 26.01,72.95 C28.43,71.74 30.4,71.95 31.99,72.12 C33.25,72.25 34.25,72.36 35.47,71.86 C37.39,71.08 39.33,68.66 39.92,67.79 L40.83,66.44 L42.19,67.34 C42.39,67.48 62.55,80.79 66.81,83.22 C69.15,84.56 72.12,86.07 74.72,84.56 C77.69,82.84 80.11,80.06 82.81,77.95 C84.17,76.88 85.63,75.87 87.3,75.4 C88.97,74.94 90.91,75.13 92.21,76.27 C86.83,76.58 82.41,81.36 79.06,85.13 C76.87,87.6 74.63,88.52 72.39,88.52 Z" fill="#004A7C"/>
  <path d="M61.069,75.253 Q62.378,70.639 67.473,63.507 Q68.663,61.841 69.178,61.07 Q69.643,60.374 70.224,60.258 Q70.804,60.143 71.5,60.608 Q72.892,61.538 71.962,62.93 Q71.418,63.745 70.198,65.453 Q65.441,72.112 64.291,76.167 Q63.834,77.778 62.223,77.321 Q60.612,76.864 61.069,75.253 Z" fill="#9E9E9E"/>
  <path d="M53.306,70.464 Q53.32,66.481 56.394,60.852 Q58.777,56.49 60.308,55.108 Q60.929,54.546 61.52,54.576 Q62.111,54.606 62.673,55.228 Q63.795,56.47 62.552,57.593 Q61.443,58.594 59.333,62.458 Q56.666,67.342 56.654,70.476 Q56.648,72.15 54.974,72.144 Q54.137,72.141 53.72,71.721 Q53.303,71.301 53.306,70.464 Z" fill="#9E9E9E"/>
  <path d="M44.735,64.968 Q54.502,55.501 61.132,54.302 Q62.78,54.005 63.078,55.652 Q63.375,57.3 61.728,57.598 Q56.101,58.615 47.065,67.372 Q46.464,67.955 45.872,67.946 Q45.28,67.936 44.698,67.335 Q43.532,66.133 44.735,64.968 Z" fill="#E0E0E0"/>
  <path d="M53.76,69.323 Q60.626,62.021 70.303,59.404 Q71.111,59.185 71.624,59.48 Q72.138,59.775 72.356,60.583 Q72.793,62.199 71.177,62.636 Q62.416,65.006 56.2,71.617 Q55.626,72.227 55.035,72.245 Q54.443,72.263 53.833,71.69 Q52.613,70.543 53.76,69.323 Z" fill="#E0E0E0"/>
  <path d="M69.727,78.794 Q71.622,73.302 76.753,65.878 Q77.704,64.501 79.082,65.453 Q80.459,66.404 79.507,67.782 Q74.638,74.828 72.893,79.886 Q72.347,81.469 70.764,80.923 Q69.181,80.377 69.727,78.794 Z" fill="#9E9E9E"/>
  <path d="M60.992,74.55 Q68.049,67.201 77.968,64.88 Q79.599,64.498 79.98,66.128 Q80.362,67.759 78.732,68.14 Q69.778,70.236 63.408,76.87 Q62.828,77.474 62.236,77.486 Q61.644,77.497 61.04,76.918 Q59.833,75.758 60.992,74.55 Z" fill="#E0E0E0"/>
  <path d="M18.86,49.68 C18.75,49.79 18.6,49.85 18.44,49.9 C17.44,50.21 16.77,49.84 15.75,50.08 C14.41,50.4 13,51.71 12.67,53.05 C12.34,54.39 12.57,55.8 12.96,57.11 C13.71,59.6 15.08,61.9 16.91,63.75 C17.49,64.33 18.13,64.9 18.42,65.67 C18.71,66.44 18.48,67.48 17.72,67.77 C17.41,67.89 17.06,67.87 16.73,67.8 C16.14,67.68 15.58,67.41 15.05,67.12 C13.28,66.15 11.66,64.89 10.3,63.4 C9.38,62.4 8.57,61.27 8.07,60.01 C6.93,57.09 7.87,53.71 9.79,51.23 C11.19,49.42 12.59,48.61 15.02,48.12 C15.79,47.96 17.23,47.76 18.58,48.03 C19.19,48.15 19.43,49.13 18.86,49.68 Z" fill="#03A9F4"/>
  <path d="M36.22,62 C36.25,62.08 35.8,61.82 35.77,61.9 C35.7,62.07 35.45,62 35.3,61.9 C34.56,61.39 34.08,60.6 33.65,59.82 C33.2,58.99 32.8,58.1 32.75,57.16 C32.6,54.46 35.54,54.04 35.54,54.04 C35.04,55.18 35.05,56.66 35.04,57.42 C35.02,58.95 35.66,60.58 36.22,62 Z" fill="#37474F"/>
  <path d="M8.25,105.29 C9.48,105.65 10.71,105.94 11.96,106.19 C13.2,106.45 14.45,106.68 15.7,106.86 C18.21,107.22 20.74,107.43 23.28,107.6 C25.82,107.81 28.37,107.99 30.95,108.28 C33.51,108.59 36.21,108.98 38.78,110.1 C43.47,112.01 48.17,113.89 52.97,115.44 C57.75,117.04 62.6,118.44 67.5,119.48 C72.39,120.58 77.35,121.3 82.31,121.51 C84.79,121.62 87.26,121.59 89.72,121.36 C92.21,121.11 94.69,120.8 97.16,120.38 C102.08,119.52 106.92,118.11 111.39,115.91 C113.64,114.84 115.81,113.57 117.77,112.01 C118.75,111.24 119.68,110.39 120.54,109.47 C121.41,108.56 122.22,107.58 122.82,106.47 L123.02,106.56 C121.92,108.91 120.15,110.84 118.25,112.55 C116.33,114.26 114.18,115.69 111.94,116.92 C107.43,119.37 102.51,120.98 97.51,122.04 C92.51,123.08 87.39,123.74 82.26,123.57 C77.14,123.43 72.05,122.7 67.04,121.62 C57.04,119.41 47.37,115.89 38.08,111.65 C35.79,110.56 33.26,110.09 30.75,109.7 C28.23,109.32 25.69,109.06 23.15,108.75 C18.09,108.13 12.99,107.31 8.18,105.5 L8.25,105.29 Z" fill="#82AEC0"/>
</svg>

<svg viewBox="0 0 128 128" xmlns="http://www.w3.org/2000/svg">
  <g>
    <g>
      <path d="M25.19,70.04c-0.69,0-1.39-0.01-2.12-0.05c-3.88-0.16-6.92-1.47-9.04-3.87 c-3.81-4.32-3.58-10.95-3.53-11.87c0.01-0.03,0.02-0.06,0.03-0.09c0.23-0.79,0.91-3.21,2.9-4.26c1.3-0.69,2.47-1.02,3.57-1.02 c1.43,0,2.75,0.56,4.04,1.72c3.29,2.96,6.98,4.8,9.62,4.8c1.89,0,6.94-0.29,9-0.42l3.12,10.29C41.2,66.5,35.76,70.04,25.19,70.04z " fill="#37474F"/>
      <path d="M16.99,49.99L16.99,49.99c1.14,0,2.22,0.47,3.29,1.43c3.54,3.19,7.42,5.09,10.37,5.09 c1.68,0,5.8-0.23,8.19-0.37l2.63,8.7c-2,1.36-7.12,4.07-16.28,4.07c-0.68,0-1.38-0.01-2.07-0.04c-3.56-0.15-6.33-1.32-8.24-3.48 c-3.4-3.85-3.32-9.81-3.27-10.96c0.2-0.71,0.79-2.74,2.34-3.55C15.07,50.28,16.07,49.99,16.99,49.99 M16.99,47.76 c-1.44,0-2.82,0.48-4.1,1.15c-2.65,1.4-3.35,4.67-3.5,5.14c0,0-1.41,16.42,13.63,17.05c0.75,0.03,1.47,0.05,2.17,0.05 c13.44,0,18.86-5.5,18.86-5.5l-3.58-11.84c0,0-7.48,0.47-9.81,0.47s-5.76-1.71-8.88-4.52C20.15,48.31,18.54,47.76,16.99,47.76 L16.99,47.76z" fill="#90A4AE"/>
    </g>
    <path d="M6.62,86.86c-1.51,5.02-1.36,13.88-1.36,13.88c0,1.41,0.89,3.87,2.95,4.65 c10.82,4.07,23.15,3,29.59,5.95c7.48,3.43,31.72,13.98,52,11.75c24.14-2.65,31.8-13.55,33.11-16.59 c0.93-2.18,1.56-10.44,0.62-10.75c-10.26-3.42-48.53,11.76-55.53,6.47C61.99,97.68,8.13,81.84,6.62,86.86z" fill="#E0E0E0"/>
    <path d="M12.43,48.99c0,0-5.69,4.43-7.16,13.71C3.7,72.51,2.31,86.86,9.39,92.48 c5.23,4.15,21.38,2.14,28.86,5.57c7.48,3.43,30.16,20.52,50.44,18.3c24.14-2.65,32.65-13.15,33.95-16.2 c0.93-2.18,3.51-6.05-10.12-11.54c-10.04-4.04-17.7-10.03-24.71-15.33c-6.01-4.54-27.72-17.76-27.72-17.76s-3.63-8.62-9.66-9.97 c-3.96-0.89-12.77,3.78-14.33,8.04c-1.73,4.73,0.42,9.09,0.42,9.09c-9.34,4.88-12.56,5.61-18.9,1.56S12.43,48.99,12.43,48.99z" fill="#0277BD"/>
    <path d="M12.43,48.99c0,0-5.69,4.43-7.16,13.71C3.7,72.51,2.31,86.86,9.39,92.48 c5.23,4.15,21.38,2.14,28.86,5.57c7.48,3.43,30.16,20.52,50.44,18.3c24.14-2.65,32.65-13.15,33.95-16.2 c0.93-2.18,3.51-6.05-10.12-11.54c-10.04-4.04-17.7-10.03-24.71-15.33c-6.01-4.54-27.72-17.76-27.72-17.76s-3.63-8.62-9.66-9.97 c-3.96-0.89-12.77,3.78-14.33,8.04c-1.73,4.73,0.42,9.09,0.42,9.09c-9.34,4.88-12.56,5.61-18.9,1.56S12.43,48.99,12.43,48.99z" fill="#0277BD"/>
    <path d="M37.29,62.62c2.4-0.4,4.36-0.45,6.74-0.15c0.1-2.41-1.06-5.15-2.3-7.17 c-0.3-0.49-0.64-0.97-0.83-1.51c-1-2.82,4.34-5.72,6.47-6.34c2.34-0.69,4.89-0.58,7.17,0.29c-1.2-1.02-2.57-1.82-4.09-2.17 c-3.68-0.83-8.36,1.7-11.21,3.78c-4.42,3.21-5.26,8.02-2.85,12.96c0.06,0.13,0.14,0.27,0.26,0.33c0.13,0.07,0.29,0.05,0.44,0.02 C37.14,62.64,37.21,62.63,37.29,62.62z" fill="#BDBDBD"/>
    <path d="M92.05,76.48c-1.08-0.8-2.47-1.11-3.75-0.71c-0.28,0.09-0.56,0.19-0.83,0.3 c-2.42,1-4.34,2.89-6.17,4.77c-1.83,1.87-3.68,3.82-6.02,4.98c-3.17,1.57-5.86,0.8-9.02,0.64c-2.89-0.14-4.69,1.36-5.34,4.39 c-0.45,2.11,0.57,4.96,2.41,6.09c6.31,3.88,12.49,5.61,19.35,6.54c8.78,1.19,17.96-0.82,25.44-5.56c2.12-1.34,4.24-3.1,4.76-5.56 c0-0.01,0.01-0.03,0.01-0.04c0.39-1.9-0.7-3.82-2.48-4.61C103.31,84.57,97.41,80.48,92.05,76.48z" fill="#03A9F4"/>
    <path d="M72.39,88.52c-2.44,0-4.86-1.09-7.21-2.43c-3.77-2.15-18.94-12.13-23.52-15.15 c-1.06,1.27-2.85,3.12-4.95,3.98c-1.98,0.81-3.62,0.63-5.07,0.48c-1.45-0.15-2.6-0.28-4.16,0.5c-2.09,1.05-3.95,2.51-6.06,3.52 c-2.25,1.08-6.4,0.95-8.52,0.15c-4.94-1.86-5.7-4.49-5.95-5.53c2.43,1.72,5.59,3.59,9.12,3.44c5.23-0.22,7.13-3.12,9.94-4.53 c2.42-1.21,4.39-1,5.98-0.83c1.26,0.13,2.26,0.24,3.48-0.26c1.92-0.78,3.86-3.2,4.45-4.07l0.91-1.35l1.36,0.9 c0.2,0.14,20.36,13.45,24.62,15.88c2.34,1.34,5.31,2.85,7.91,1.34c2.97-1.72,5.39-4.5,8.09-6.61c1.36-1.07,2.82-2.08,4.49-2.55 c1.67-0.46,3.61-0.27,4.91,0.87c-5.38,0.31-9.8,5.09-13.15,8.86C76.87,87.6,74.63,88.52,72.39,88.52z" fill="#004A7C"/>
    <path d="M62.68,75.71 c1.56-5.5,5.39-9.97,7.89-13.71" fill="none" stroke="#9E9E9E" stroke-width="3.3486" stroke-linecap="round" stroke-miterlimit="10"/>
    <path d="M54.98,70.47 c0.02-5.52,5.52-13.28,6.45-14.12" fill="none" stroke="#9E9E9E" stroke-width="3.3486" stroke-linecap="round" stroke-miterlimit="10"/>
    <path d="M45.9,66.17 c5.2-5.04,12.1-9.6,15.53-10.22" fill="none" stroke="#E0E0E0" stroke-width="3.3486" stroke-linecap="round" stroke-miterlimit="10"/>
    <path d="M54.98,70.47 c4.25-4.52,9.77-7.83,15.76-9.45" fill="none" stroke="#E0E0E0" stroke-width="3.3486" stroke-linecap="round" stroke-miterlimit="10"/>
    <path d="M71.31,79.34 c1.47-4.26,4.27-8.82,6.82-12.51" fill="none" stroke="#9E9E9E" stroke-width="3.3486" stroke-linecap="round" stroke-miterlimit="10"/>
    <path d="M62.2,75.71 c4.35-4.53,10.04-7.77,16.15-9.2" fill="none" stroke="#E0E0E0" stroke-width="3.3486" stroke-linecap="round" stroke-miterlimit="10"/>
    <path d="M18.86,49.68c-0.11,0.11-0.26,0.17-0.42,0.22c-1,0.31-1.67-0.06-2.69,0.18 c-1.34,0.32-2.75,1.63-3.08,2.97s-0.1,2.75,0.29,4.06c0.75,2.49,2.12,4.79,3.95,6.64c0.58,0.58,1.22,1.15,1.51,1.92 c0.29,0.77,0.06,1.81-0.7,2.1c-0.31,0.12-0.66,0.1-0.99,0.03c-0.59-0.12-1.15-0.39-1.68-0.68c-1.77-0.97-3.39-2.23-4.75-3.72 c-0.92-1-1.73-2.13-2.23-3.39c-1.14-2.92-0.2-6.3,1.72-8.78c1.4-1.81,2.8-2.62,5.23-3.11c0.77-0.16,2.21-0.36,3.56-0.09 C19.19,48.15,19.43,49.13,18.86,49.68z" fill="#03A9F4"/>
    <path d="M36.22,62c0.03,0.08-0.42-0.18-0.45-0.1c-0.07,0.17-0.32,0.1-0.47,0c-0.74-0.51-1.22-1.3-1.65-2.08 c-0.45-0.83-0.85-1.72-0.9-2.66c-0.15-2.7,2.79-3.12,2.79-3.12c-0.5,1.14-0.49,2.62-0.5,3.38C35.02,58.95,35.66,60.58,36.22,62z" fill="#37474F"/>
    <path d="M8.25,105.29c1.23,0.36,2.46,0.65,3.71,0.9c1.24,0.26,2.49,0.49,3.74,0.67 c2.51,0.36,5.04,0.57,7.58,0.74c2.54,0.21,5.09,0.39,7.67,0.68c2.56,0.31,5.26,0.7,7.83,1.82c4.69,1.91,9.39,3.79,14.19,5.34 c4.78,1.6,9.63,3,14.53,4.04c4.89,1.1,9.85,1.82,14.81,2.03c2.48,0.11,4.95,0.08,7.41-0.15c2.49-0.25,4.97-0.56,7.44-0.98 c4.92-0.86,9.76-2.27,14.23-4.47c2.25-1.07,4.42-2.34,6.38-3.9c0.98-0.77,1.91-1.62,2.77-2.54c0.87-0.91,1.68-1.89,2.28-3 l0.2,0.09c-1.1,2.35-2.87,4.28-4.77,5.99c-1.92,1.71-4.07,3.14-6.31,4.37c-4.51,2.45-9.43,4.06-14.43,5.12 c-5,1.04-10.12,1.7-15.25,1.53c-5.12-0.14-10.21-0.87-15.22-1.95c-10-2.21-19.67-5.73-28.96-9.97c-2.29-1.09-4.82-1.56-7.33-1.95 c-2.52-0.38-5.06-0.64-7.6-0.95c-5.06-0.62-10.16-1.44-14.97-3.25L8.25,105.29z" fill="#82AEC0"/>
  </g>
</svg>
